flaticon/seo-and-analytics/browser-46.svg

<svg xmlns="http://www.w3.org/2000/svg" width="32" height="32" viewBox="0 0 24 24">
    <path d="M2.800781 1.199219C1.921875 1.199219 1.199219 1.921875 1.199219 2.800781 1.199219 3.679688 1.921875 4.398438 2.800781 4.398438 3.679688 4.398438 4.398438 3.679688 4.398438 2.800781 4.398438 1.921875 3.679688 1.199219 2.800781 1.199219zM2.800781 3.601562C2.359375 3.601562 2 3.238281 2 2.800781 2 2.359375 2.359375 2 2.800781 2 3.238281 2 3.601562 2.359375 3.601562 2.800781 3.601562 3.238281 3.238281 3.601562 2.800781 3.601562zM6.398438 1.199219C5.519531 1.199219 4.800781 1.921875 4.800781 2.800781 4.800781 3.679688 5.519531 4.398438 6.398438 4.398438 7.28125 4.398438 8 3.679688 8 2.800781 8 1.921875 7.28125 1.199219 6.398438 1.199219zM6.398438 3.601562C5.960938 3.601562 5.601562 3.238281 5.601562 2.800781 5.601562 2.359375 5.960938 2 6.398438 2 6.839844 2 7.199219 2.359375 7.199219 2.800781 7.199219 3.238281 6.839844 3.601562 6.398438 3.601562zM10 1.199219C9.121094 1.199219 8.398438 1.921875 8.398438 2.800781 8.398438 3.679688 9.121094 4.398438 10 4.398438 10.878906 4.398438 11.601562 3.679688 11.601562 2.800781 11.601562 1.921875 10.878906 1.199219 10 1.199219zM10 3.601562C9.558594 3.601562 9.199219 3.238281 9.199219 2.800781 9.199219 2.359375 9.558594 2 10 2 10.441406 2 10.800781 2.359375 10.800781 2.800781 10.800781 3.238281 10.441406 3.601562 10 3.601562zM10 3.601562"/>
    <path d="M 22.878906 0 L 1.160156 0 C 0.519531 0 0 0.519531 0 1.160156 L 0 16.71875 C 0 17.441406 0.558594 18 1.28125 18 L 6.964844 18 C 7.363281 19.945312 8.453125 21.796875 9.960938 22.960938 C 10.558594 23.441406 11.160156 23.679688 11.839844 23.960938 C 11.921875 24 11.960938 24 12 24 C 12.039062 24 12.078125 24 12.199219 24 C 12.878906 23.71875 13.480469 23.480469 14.078125 23 C 15.589844 21.804688 16.675781 19.945312 17.074219 18 L 22.71875 18 C 23.441406 18 24 17.441406 24 16.71875 L 24 1.160156 C 24 0.519531 23.480469 0 22.878906 0 Z M 13.519531 22.359375 C 13.078125 22.71875 12.558594 22.921875 12 23.160156 C 11.441406 22.960938 10.960938 22.71875 10.480469 22.359375 C 8.914062 21.113281 7.855469 19.136719 7.640625 17.140625 C 7.621094 16.941406 7.609375 16.742188 7.601562 16.550781 C 7.601562 16.5 7.601562 16.449219 7.601562 16.398438 L 7.601562 12.761719 C 9.320312 12.480469 10.878906 11.960938 12 11.28125 C 13.121094 11.960938 14.679688 12.519531 16.398438 12.761719 L 16.398438 16.398438 C 16.398438 18.640625 15.28125 21 13.519531 22.359375 Z M 23.199219 16.71875 C 23.199219 17 23 17.199219 22.71875 17.199219 L 17.195312 17.199219 C 17.21875 16.988281 17.234375 16.777344 17.238281 16.566406 C 17.25 16.507812 17.261719 16.453125 17.28125 16.398438 L 17.28125 12.039062 L 16.921875 12 C 15.078125 11.800781 13.359375 11.199219 12.28125 10.480469 L 12.039062 10.320312 L 11.800781 10.480469 C 10.71875 11.199219 9 11.761719 7.160156 12 L 6.800781 12.039062 L 6.800781 16.398438 C 6.800781 16.679688 6.800781 16.921875 6.839844 17.199219 L 1.28125 17.199219 C 1 17.199219 0.800781 17 0.800781 16.71875 L 0.800781 5.601562 L 23.199219 5.601562 Z M 0.800781 4.800781 L 0.800781 1.160156 C 0.800781 0.960938 0.960938 0.800781 1.160156 0.800781 L 22.839844 0.800781 C 23.039062 0.800781 23.199219 0.960938 23.199219 1.160156 L 23.199219 4.800781 Z M 0.800781 4.800781"/>
    <path d="M 12 13.601562 C 10.238281 13.601562 8.800781 15.039062 8.800781 16.800781 C 8.800781 18.558594 10.238281 20 12 20 C 13.761719 20 15.199219 18.558594 15.199219 16.800781 C 15.199219 15.039062 13.761719 13.601562 12 13.601562 Z M 12 19.199219 C 10.679688 19.199219 9.601562 18.121094 9.601562 16.800781 C 9.601562 15.480469 10.679688 14.398438 12 14.398438 C 13.320312 14.398438 14.398438 15.480469 14.398438 16.800781 C 14.398438 18.121094 13.320312 19.199219 12 19.199219 Z M 12 19.199219"/>
    <path d="M 13.199219 16.398438 L 12.398438 16.398438 L 12.398438 15.601562 C 12.398438 15.359375 12.238281 15.199219 12 15.199219 C 11.761719 15.199219 11.601562 15.359375 11.601562 15.601562 L 11.601562 16.398438 L 10.800781 16.398438 C 10.558594 16.398438 10.398438 16.558594 10.398438 16.800781 C 10.398438 17.039062 10.558594 17.199219 10.800781 17.199219 L 11.601562 17.199219 L 11.601562 18 C 11.601562 18.238281 11.761719 18.398438 12 18.398438 C 12.238281 18.398438 12.398438 18.238281 12.398438 18 L 12.398438 17.199219 L 13.199219 17.199219 C 13.441406 17.199219 13.601562 17.039062 13.601562 16.800781 C 13.601562 16.558594 13.441406 16.398438 13.199219 16.398438 Z M 13.199219 16.398438"/>
</svg>

<svg xmlns="http://www.w3.org/2000/svg" width="32" height="32" viewBox="0 0 24 24">
    <path d="M2.8 1.2c-.878 0-1.6.722-1.6 1.6 0 .88.722 1.598 1.6 1.598.88 0 1.598-.718 1.598-1.597 0-.88-.718-1.602-1.597-1.602zm0 2.402A.804.804 0 0 1 2 2.8C2 2.359 2.36 2 2.8 2c.438 0 .802.36.802.8 0 .438-.364.802-.801.802zm0 0M6.398 1.2c-.878 0-1.597.722-1.597 1.6 0 .88.719 1.598 1.597 1.598C7.281 4.398 8 3.68 8 2.801c0-.88-.719-1.602-1.602-1.602zm0 2.402a.801.801 0 0 1 0-1.602c.442 0 .801.36.801.8 0 .438-.36.802-.8.802zm0 0M10 1.2c-.879 0-1.602.722-1.602 1.6 0 .88.723 1.598 1.602 1.598.879 0 1.602-.718 1.602-1.597 0-.88-.723-1.602-1.602-1.602zm0 2.402a.804.804 0 0 1-.8-.801.802.802 0 0 1 1.6 0c0 .437-.359.8-.8.8zm0 0"/>
    <path d="M22.879 0H1.16C.52 0 0 .52 0 1.16V16.72C0 17.44.559 18 1.281 18h5.684c.398 1.945 1.488 3.797 2.996 4.96.598.481 1.2.72 1.879 1 .082.04.12.04.16.04h.2c.679-.281 1.28-.52 1.878-1 1.512-1.195 2.598-3.055 2.996-5h5.645C23.44 18 24 17.441 24 16.719V1.16C24 .52 23.48 0 22.879 0zm-9.36 22.36c-.44.359-.96.562-1.519.8a5.555 5.555 0 0 1-1.52-.8c-1.566-1.247-2.625-3.223-2.84-5.22-.019-.199-.03-.398-.038-.59V12.763c1.718-.282 3.277-.801 4.398-1.48 1.121.679 2.68 1.238 4.398 1.48v3.636c0 2.243-1.117 4.602-2.878 5.961zm9.68-5.641c0 .281-.199.48-.48.48h-5.524c.024-.21.04-.422.043-.633.012-.058.024-.113.043-.168V12.04l-.36-.039c-1.843-.2-3.562-.8-4.64-1.52l-.242-.16-.238.16C10.719 11.2 9 11.762 7.16 12l-.36.04v4.358c0 .282 0 .524.039.801H1.28c-.281 0-.48-.199-.48-.48V5.602h22.398zM.801 4.8V1.16C.8.96.96.8 1.16.8H22.84c.2 0 .36.16.36.36V4.8zm0 0"/>
    <path d="M12 13.602A3.206 3.206 0 0 0 8.8 16.8C8.8 18.559 10.239 20 12 20c1.762 0 3.2-1.441 3.2-3.2 0-1.76-1.438-3.198-3.2-3.198zm0 5.597a2.404 2.404 0 0 1-2.398-2.398A2.407 2.407 0 0 1 12 14.398a2.407 2.407 0 0 1 2.398 2.403A2.404 2.404 0 0 1 12 19.199zm0 0"/>
    <path d="M13.2 16.398h-.802v-.796c0-.243-.16-.403-.398-.403-.238 0-.398.16-.398.403v.796H10.8c-.242 0-.403.16-.403.403 0 .238.16.398.403.398h.8V18c0 .238.16.398.399.398.238 0 .398-.16.398-.398v-.8h.801c.242 0 .403-.16.403-.4 0-.241-.16-.402-.403-.402zm0 0"/>
</svg>
